docs/images/map-icon.svg

<svg viewBox="0 0 32 23" fill="none" xmlns="http://www.w3.org/2000/svg">
<path fill-rule="evenodd" clip-rule="evenodd" d="M5.08411 20.6446C9.11043 20.6446 9.86916 17.0981 9.86916 14.2587C10.3474 14.2587 14.1267 14.2587 15.8505 14.2587C25.2271 14.2587 25.2295 0.96875 16.1495 0.96875C13.6798 0.96875 12.0891 2.46863 11.6633 2.99113C6.59708 2.99113 5.98131 5.64294 5.98131 10.792C5.98131 11.7854 5.98131 15.0144 5.98131 15.5118C5.98131 16.7225 5.49563 17.508 4.18662 17.508C3.06901 17.508 2.53967 16.5166 2.09316 15.1254C1.86049 15.2506 0.22669 16.1359 0 16.281C0.494354 17.6708 1.0237 20.6446 5.08411 20.6446ZM10.7765 8.76935C12.3104 8.76935 12.4408 11.0806 10.668 11.0806C9.17353 11.0806 9.21241 8.76935 10.7765 8.76935ZM16.1498 15.6955C14.8534 15.6955 11.0654 15.4143 11.0654 15.4143V22.5398L14.6542 22.5912L15.5514 17.4367L26.9159 17.2228L27.2153 22.8741L31.4022 22.9257C31.4022 22.9257 32 11.8567 32 9.63608C32 5.51717 30.1604 3.18592 26.0187 2.99113C24.9809 2.94236 23.6232 2.74842 22.729 2.70221C26.6267 7.45342 23.5254 15.6955 16.1498 15.6955ZM23.3274 18.5846L23.6262 22.7714L26.0187 22.823L25.7196 18.5846H23.3274ZM15.8505 22.6431L18.243 22.6944L18.8408 18.5846H16.7474L15.8505 22.6431Z" fill="#FF862F"/>
</svg>

<svg viewBox="0 0 32 23" fill="none" xmlns="http://www.w3.org/2000/svg"><path fill-rule="evenodd" clip-rule="evenodd" d="M5.084 20.645c4.026 0 4.785-3.547 4.785-6.386h5.982c9.376 0 9.379-13.29.298-13.29-2.47 0-4.06 1.5-4.486 2.022-5.066 0-5.682 2.652-5.682 7.801v4.72c0 1.21-.485 1.996-1.794 1.996-1.118 0-1.647-.991-2.094-2.383-.233.126-1.866 1.01-2.093 1.156.494 1.39 1.024 4.364 5.084 4.364zm5.693-11.876c1.533 0 1.664 2.312-.109 2.312-1.494 0-1.456-2.312.109-2.312zm5.373 6.926c-1.297 0-5.085-.28-5.085-.28v7.125l3.59.051.896-5.154 11.365-.214.3 5.651 4.186.052S32 11.856 32 9.636c0-4.119-1.84-6.45-5.981-6.645-1.038-.049-2.396-.243-3.29-.289 3.898 4.751.796 12.993-6.58 12.993zm7.177 2.89l.3 4.186 2.392.052-.3-4.238h-2.392zm-7.477 4.058l2.393.051.598-4.11h-2.094l-.896 4.06z" fill="#FF862F"/></svg>
